X:73
T: Barázdában szépen szól a pacsirta...
O: Magyarpalatka, Papp Anna (62), 1963
M:10/8
L:1/4
K:F
g/f/ d/d d/c/ c/B | d d3/2 (f f) z/ | 
g/f/ d/d d/c/ c/B | d c3/2 d z3/2 | 
d/d/ dB/ c/B/ G/G | d c3/2 B z3/2 | 
f/d/ dd/ B/d/ cB/ | A/(G/G3/2) G z3/2 |

